images/star-icon.svg

<svg width="43" height="43" viewBox="0 0 43 43" fill="none" xmlns="http://www.w3.org/2000/svg">
<circle opacity="0.5" cx="21.5" cy="21.5" r="21.5" fill="#C29F5B"/>
<path d="M21.2367 14.261L23.2375 19.2633L28.3597 19.7282C28.715 19.7606 28.8595 20.2288 28.5898 20.4753L24.7045 24.0311L25.8688 29.3209C25.9496 29.6885 25.5725 29.9776 25.2673 29.7823L20.8653 26.9779L16.4632 29.7823C16.1572 29.9768 15.781 29.6876 15.8617 29.3209L17.026 24.0311L13.1399 20.4745C12.8702 20.228 13.014 19.7597 13.37 19.7273L18.4923 19.2625L20.4931 14.261C20.6319 13.913 21.0978 13.913 21.2367 14.261Z" fill="#C29F5B"/>
</svg>

<svg width="43" height="43" fill="none" xmlns="http://www.w3.org/2000/svg"><circle opacity=".5" cx="21.5" cy="21.5" r="21.5" fill="#C29F5B"/><path d="M21.237 14.261l2 5.002 5.123.465c.355.033.5.5.23.747l-3.886 3.556 1.165 5.29c.08.367-.296.657-.602.461l-4.402-2.804-4.402 2.804c-.306.195-.682-.094-.601-.461l1.164-5.29-3.886-3.556c-.27-.247-.126-.715.23-.748l5.122-.465 2.001-5.001a.395.395 0 01.744 0z" fill="#C29F5B"/></svg>
